X:66
M:4/4
L:1/4
K:Bb
B B B e | d3/2 c/ B2 | B G F B | d3/2 c/ c2 | B B B e | d3/2 c/ B2 | G A/B/ d3/2 c/ | B G F2 | !sintro!e e d B | d3/2 c/ B2 | A3/2 G/ F B | G3/2 A/ B2 !eintro!|]
